icons/linear-new-medic-health-heart-cardiogram.svg

<svg xmlns="http://www.w3.org/2000/svg" width="32px" height="32px" viewBox="0 0 32 32" version="1.1">
    <title>linear-new-medic-health-heart-cardiogram</title>
    <g id="linear-new-medic-health-heart-cardiogram" stroke-width="1" fill-rule="evenodd">
        <path d="M29.0843059,8.37007576 C32.193238,14.6719651 28.1440009,22.7885974 16.5194153,29.8545219 C16.2003021,30.0484927 15.7996979,30.0484927 15.4805847,29.8545219 C3.85599913,22.7885974 -0.193237981,14.6719651 2.91569412,8.37007576 C5.45270423,3.22748769 11.8941685,1.68590965 15.8770567,5.38738349 L15.9992235,5.50475782 L16.1229433,5.38738349 C20.1058315,1.68590965 26.5472958,3.22748769 29.0843059,8.37007576 Z M16.7893522,7.61394061 C16.3889943,8.12868646 15.6110057,8.12868646 15.2106478,7.61394061 C12.3436507,3.9278015 6.83400253,4.94810672 4.70930588,9.25492424 C2.24066063,14.2589349 5.41580457,21.0096931 15.2905111,27.3763386 L15.9992235,27.8257578 L16.2999048,27.6377598 C26.361985,21.2797466 29.7051985,14.5081329 27.3864608,9.45608403 L27.2906941,9.25492424 C25.1659975,4.94810672 19.6563493,3.9278015 16.7893522,7.61394061 Z M14.7071068,12.2928932 L18,15.585 L21.2928932,12.2928932 C21.6533772,11.9324093 22.2206082,11.9046797 22.6128994,12.2097046 L22.7071068,12.2928932 C23.0976311,12.6834175 23.0976311,13.3165825 22.7071068,13.7071068 L18.7071068,17.7071068 C18.3165825,18.0976311 17.6834175,18.0976311 17.2928932,17.7071068 L14,14.415 L10.7071068,17.7071068 C10.3466228,18.0675907 9.77939176,18.0953203 9.38710056,17.7902954 L9.29289322,17.7071068 C8.90236893,17.3165825 8.90236893,16.6834175 9.29289322,16.2928932 L13.2928932,12.2928932 C13.6834175,11.9023689 14.3165825,11.9023689 14.7071068,12.2928932 Z" id="&#24418;&#29366;" fill-rule="nonzero" />
    </g>
</svg>

<svg xmlns="http://www.w3.org/2000/svg" viewBox="0 0 32 32"><path fill="currentColor" d="M29.084 8.37c3.11 6.302-.94 14.419-12.565 21.485a1 1 0 0 1-1.038 0C3.856 22.789-.193 14.672 2.916 8.37c2.537-5.143 8.978-6.684 12.961-2.983l.122.118.124-.118c3.983-3.701 10.424-2.16 12.961 2.983M16.79 7.614a1 1 0 0 1-1.578 0c-2.867-3.686-8.377-2.666-10.502 1.64-2.468 5.005.707 11.756 10.582 18.122l.708.45.3-.188c10.063-6.358 13.406-13.13 11.087-18.182l-.095-.201c-2.125-4.307-7.635-5.327-10.502-1.641m-2.082 4.679L18 15.585l3.293-3.292a1 1 0 0 1 1.32-.083l.094.083a1 1 0 0 1 0 1.414l-4 4a1 1 0 0 1-1.414 0L14 14.415l-3.293 3.292a1 1 0 0 1-1.32.083l-.094-.083a1 1 0 0 1 0-1.414l4-4a1 1 0 0 1 1.414 0"/></svg>
